X:199 
T:Tansey's Favorite (reel) 
B:CRE3.136 (Rogha Mhic an TÃÂÃÂÃÂÃÂ¡naiste)
F:file ID: cre.3/199tans_f
N:In m. 15 I replaced /DB,DE/ with /DEFG/ (seems
unlikely that Tansey, a flute player, would have
been able to get to a low B)
R:reel
M:C
L:1/8
Q:180
K:G
z2|G2DG EGDG|G2BG AEE2|G2BG AGAB|cedc B2AF|
G2DG EGDG|G2BG AEE2|G2BG AGAB|cedc BGG2||
gd~d2 eBdB|cBAc BEEf|gd~d2 eBdc|(3Bcd gd BGGf|
g3d eBB2|dBAB GEE2|"15"DEFG BcdB|cedc B2AF||

%%%

